X:280
T:Miller's Daughter,The. (p)1687.PLFD.280
M:6/4
L:1/4
Q:3/4=90
S:Playford, Dancing Master,7th Ed,1st Supp,1687.
O:England
H:1687.
Z:Chris Partington
K:G
D|G>AGABc|B2AG2d|efgf2e|d3-d2:|
|:d|deff>ed|efgf>ed|gdedBG|G3-G2:|
